X:136
T: Die elfjaehrige Markgraefin
N: Q1053N
O: Mitteleuropa, Deutschland
N: Melodievergleich zu Q0053B, anderes Lied
R: geistlich, Weihnachts - Lied
M: 6/4
L: 1/4
K: F
F2G | A2BAGA | F3
c2d | cdefde | f3
F2G | A2BAGA | F3
c2d | cdefde | f3
f2g | f2edcd | c2
Ac2B | AGAFDE | F3

